actions/view-app-grid-symbolic.svg

<svg xmlns="http://www.w3.org/2000/svg" width="48" height="48">
    <path d="M24 2A22 22 0 0 0 2 24a22 22 0 0 0 22 22 22 22 0 0 0 22-22A22 22 0 0 0 24 2zM14 16a3 3 0 0 1 3 3 3 3 0 0 1-3 3 3 3 0 0 1-3-3 3 3 0 0 1 3-3zm10 0a3 3 0 0 1 3 3 3 3 0 0 1-3 3 3 3 0 0 1-3-3 3 3 0 0 1 3-3zm10 0a3 3 0 0 1 3 3 3 3 0 0 1-3 3 3 3 0 0 1-3-3 3 3 0 0 1 3-3zM14 26a3 3 0 0 1 3 3 3 3 0 0 1-3 3 3 3 0 0 1-3-3 3 3 0 0 1 3-3zm10 0a3 3 0 0 1 3 3 3 3 0 0 1-3 3 3 3 0 0 1-3-3 3 3 0 0 1 3-3zm10 0a3 3 0 0 1 3 3 3 3 0 0 1-3 3 3 3 0 0 1-3-3 3 3 0 0 1 3-3z" fill-rule="evenodd"/>
</svg>

<?xml version="1.0" encoding="UTF-8" standalone="no"?>
<!-- Created with Inkscape (http://www.inkscape.org/) -->

<svg
   xmlns:dc="http://purl.org/dc/elements/1.1/"
   xmlns:cc="http://creativecommons.org/ns#"
   xmlns:rdf="http://www.w3.org/1999/02/22-rdf-syntax-ns#"
   xmlns:svg="http://www.w3.org/2000/svg"
   xmlns="http://www.w3.org/2000/svg"
   xmlns:sodipodi="http://sodipodi.sourceforge.net/DTD/sodipodi-0.dtd"
   xmlns:inkscape="http://www.inkscape.org/namespaces/inkscape"
   width="48"
   height="48"
   id="svg4152"
   version="1.1"
   inkscape:version="0.91 r13725"
   viewBox="0 0 48 48"
   sodipodi:docname="view-app-grid-symbolic.svg">
  <defs
     id="defs4154" />
  <sodipodi:namedview
     id="base"
     pagecolor="#ededed"
     bordercolor="#000000"
     borderopacity="0.49803922"
     inkscape:pageopacity="0"
     inkscape:pageshadow="2"
     inkscape:zoom="15.696216"
     inkscape:cx="18.229341"
     inkscape:cy="26.615583"
     inkscape:current-layer="layer1"
     showgrid="true"
     inkscape:grid-bbox="true"
     inkscape:document-units="px"
     inkscape:showpageshadow="false"
     borderlayer="true"
     inkscape:window-width="1920"
     inkscape:window-height="1012"
     inkscape:window-x="0"
     inkscape:window-y="32"
     inkscape:window-maximized="1">
    <inkscape:grid
       type="xygrid"
       id="grid4700"
       color="#000000"
       opacity="0.0627451"
       empcolor="#000000"
       empopacity="0.1254902"
       empspacing="4"
       spacingx="2"
       spacingy="2" />
  </sodipodi:namedview>
  <metadata
     id="metadata4157">
    <rdf:RDF>
      <cc:Work
         rdf:about="">
        <dc:format>image/svg+xml</dc:format>
        <dc:type
           rdf:resource="http://purl.org/dc/dcmitype/StillImage" />
        <dc:title />
      </cc:Work>
    </rdf:RDF>
  </metadata>
  <g
     id="layer1"
     inkscape:label="Layer 1"
     inkscape:groupmode="layer"
     transform="translate(0,32)">
    <path
       style="color:#000000;clip-rule:nonzero;display:inline;overflow:visible;visibility:visible;opacity:1;isolation:auto;mix-blend-mode:normal;color-interpolation:sRGB;color-interpolation-filters:linearRGB;solid-color:#000000;solid-opacity:1;fill:#000000;fill-opacity:1;fill-rule:evenodd;stroke:none;stroke-width:0.1;stroke-linecap:round;stroke-linejoin:round;stroke-miterlimit:4;stroke-dasharray:none;stroke-dashoffset:0;stroke-opacity:0.25098039;color-rendering:auto;image-rendering:auto;shape-rendering:auto;text-rendering:auto;enable-background:accumulate"
       d="M 24 2 A 22 22 0 0 0 2 24 A 22 22 0 0 0 24 46 A 22 22 0 0 0 46 24 A 22 22 0 0 0 24 2 z M 14 16 A 3 3 0 0 1 17 19 A 3 3 0 0 1 14 22 A 3 3 0 0 1 11 19 A 3 3 0 0 1 14 16 z M 24 16 A 3 3 0 0 1 27 19 A 3 3 0 0 1 24 22 A 3 3 0 0 1 21 19 A 3 3 0 0 1 24 16 z M 34 16 A 3 3 0 0 1 37 19 A 3 3 0 0 1 34 22 A 3 3 0 0 1 31 19 A 3 3 0 0 1 34 16 z M 14 26 A 3 3 0 0 1 17 29 A 3 3 0 0 1 14 32 A 3 3 0 0 1 11 29 A 3 3 0 0 1 14 26 z M 24 26 A 3 3 0 0 1 27 29 A 3 3 0 0 1 24 32 A 3 3 0 0 1 21 29 A 3 3 0 0 1 24 26 z M 34 26 A 3 3 0 0 1 37 29 A 3 3 0 0 1 34 32 A 3 3 0 0 1 31 29 A 3 3 0 0 1 34 26 z "
       transform="translate(0,-32)"
       id="path4174" />
  </g>
</svg>
